icons/outline/container.svg

<!--
category: Design
tags: [element, html, block, store, inside]
version: "1.39"
unicode: "ee47"
-->
<svg
  xmlns="http://www.w3.org/2000/svg"
  width="24"
  height="24"
  viewBox="0 0 24 24"
  fill="none"
  stroke="currentColor"
  stroke-width="2"
  stroke-linecap="round"
  stroke-linejoin="round"
>
  <path d="M20 4v.01m0 15.99v.01m0 -4.01v.01m0 -4.01v.01m0 -4.01v.01m-12 -4.01m0 1a1 1 0 0 1 1 -1h6a1 1 0 0 1 1 1v14a1 1 0 0 1 -1 1h-6a1 1 0 0 1 -1 -1zm-4 -1v.01m0 15.99v.01m0 -4.01v.01m0 -4.01v.01m0 -4.01v.01" />
</svg>

<!--
category: Design
tags: [element, html, block, store, inside]
version: "1.39"
unicode: "ee47"
-->
<svg
  xmlns="http://www.w3.org/2000/svg"
  width="24"
  height="24"
  viewBox="0 0 24 24"
  fill="none"
  stroke="currentColor"
  stroke-width="2"
  stroke-linecap="round"
  stroke-linejoin="round"
>
    <path d="M20 4v.01M20 20v.01M20 16v.01M20 12v.01M20 8v.01M8 4m0 1a1 1 0 0 1 1 -1h6a1 1 0 0 1 1 1v14a1 1 0 0 1 -1 1h-6a1 1 0 0 1 -1 -1zM4 4v.01M4 20v.01M4 16v.01M4 12v.01M4 8v.01" />
</svg>
